src/assets/footer/linkedin.svg

<svg width="35" height="35" viewBox="0 0 35 35" fill="none" xmlns="http://www.w3.org/2000/svg">
    <path d="M17.5 0C7.83649 0 0 7.83649 0 17.5C0 27.1635 7.83649 35 17.5 35C27.1635 35 35 27.1635 35 17.5C35 7.83649 27.1635 0 17.5 0ZM12.4147 26.4551H8.15266V13.6326H12.4147V26.4551ZM10.2838 11.8817H10.256C8.82584 11.8817 7.90085 10.8972 7.90085 9.66671C7.90085 8.40847 8.85414 7.45117 10.3121 7.45117C11.7701 7.45117 12.6673 8.40847 12.6951 9.66671C12.6951 10.8972 11.7701 11.8817 10.2838 11.8817ZM27.7827 26.4551H23.5212V19.5954C23.5212 17.8714 22.9041 16.6957 21.362 16.6957C20.1847 16.6957 19.4835 17.4888 19.1753 18.2544C19.0627 18.5283 19.0351 18.9112 19.0351 19.2944V26.4551H14.7734C14.7734 26.4551 14.8292 14.8356 14.7734 13.6326H19.0351V15.4482C19.6015 14.5744 20.6149 13.3317 22.8761 13.3317C25.6802 13.3317 27.7827 15.1643 27.7827 19.1027V26.4551Z" fill="#EF4934"/>
</svg>

<svg width="35" height="35" fill="none" xmlns="http://www.w3.org/2000/svg"><path d="M17.5 0C7.836 0 0 7.836 0 17.5 0 27.163 7.836 35 17.5 35 27.163 35 35 27.163 35 17.5 35 7.836 27.163 0 17.5 0Zm-5.085 26.455H8.153V13.633h4.262v12.822Zm-2.131-14.573h-.028c-1.43 0-2.355-.985-2.355-2.215 0-1.259.953-2.216 2.411-2.216 1.458 0 2.355.957 2.383 2.216 0 1.23-.925 2.215-2.411 2.215Zm17.499 14.573H23.52v-6.86c0-1.724-.617-2.9-2.159-2.9-1.177 0-1.878.794-2.187 1.56-.112.273-.14.656-.14 1.04v7.16h-4.262s.056-11.62 0-12.822h4.262v1.815c.567-.874 1.58-2.116 3.841-2.116 2.804 0 4.907 1.832 4.907 5.77v7.353Z" fill="#EF4934"/></svg>
